Papirus/48x48/apps/kjots.svg

<!-- Created with Inkscape (http://www.inkscape.org/) -->
<svg width="48" height="47.99968" version="1.1" viewBox="0 0 48 47.999684" xmlns="http://www.w3.org/2000/svg">
 <rect x="7.9999466" y="4.9999666" width="31.999786" height="39.999733" ry="1.9999866" style="opacity:.2"/>
 <rect x="7.9999466" y="3.9999733" width="31.999786" height="39.999733" ry="1.9999866" style="fill:#fabd01"/>
 <path d="m9.9999334 3.9999734c-1.1079926 0-1.9999867 0.891994-1.9999867 1.9999867v35.99976c0 1.107993 0.8919941 1.999987 1.9999867 1.999987h3.9999736v-39.999734z" style="opacity:.5"/>
 <path d="m9.9999334 3.9999734c-1.1079914 0-1.9999867 0.8919952-1.9999867 1.9999869v0.9999933c0-1.1079916 0.8919953-1.9999869 1.9999867-1.9999869h27.999814c1.107991 0 1.999987 0.8919953 1.999987 1.9999869v-0.9999933c0-1.1079917-0.891996-1.9999869-1.999987-1.9999869z" style="fill:#ffffff;opacity:.2"/>
 <path d="m43.314316 9.0017194c-0.809594-0.038573-1.425772 0.582028-1.425772 0.582028l-21.887935 21.890357-1.92e-4 5.525744h5.525167l21.893976-21.888874s1.30599-1.307476 0-2.613265l-2.917752-2.9139616c-0.408121-0.40806-0.819494-0.564494-1.187492-0.582028z" style="opacity:.2"/>
 <path d="m43.314316 8.0017265c-0.809594-0.038574-1.425772 0.5820274-1.425772 0.5820274l-21.887935 21.890357-1.92e-4 5.525743h5.525167l21.893976-21.888874s1.30599-1.307473 0-2.613264l-2.917752-2.9139621c-0.408121-0.4080593-0.819494-0.5644935-1.187492-0.5820274z" style="fill:#4f4f4f"/>
</svg>

<svg xmlns="http://www.w3.org/2000/svg" width="48" height="48" version="1.1">
 <rect style="opacity:0.2" width="32" height="40" x="8" y="5" ry="2"/>
 <rect style="fill:#fabd01" width="32" height="40" x="8" y="4" ry="2"/>
 <path style="opacity:0.5" d="M 10 4 C 8.892 4 8 4.892 8 6 L 8 42 C 8 43.108 8.892 44 10 44 L 14 44 L 14 4 L 10 4 z"/>
 <path style="fill:#ffffff;opacity:0.2" d="M 10 4 C 8.892 4 8 4.892 8 6 L 8 7 C 8 5.892 8.892 5 10 5 L 38 5 C 39.108 5 40 5.892 40 7 L 40 6 C 40 4.892 39.108 4 38 4 L 10 4 z"/>
 <path style="opacity:0.2" d="M 43.314,9.002 C 42.505,8.963 41.889,9.584 41.889,9.584 L 20.001,31.474 20,37 H 25.526 L 47.42,15.111 C 47.42,15.111 48.726,13.803 47.42,12.498 L 44.502,9.584 C 44.094,9.176 43.682,9.019 43.314,9.002 Z"/>
 <path style="fill:#4f4f4f" d="M 43.314,8.002 C 42.505,7.963 41.889,8.584 41.889,8.584 L 20.001,30.474 20,36 H 25.526 L 47.42,14.111 C 47.42,14.111 48.726,12.804 47.42,11.498 L 44.502,8.584 C 44.094,8.176 43.682,8.019 43.314,8.002 Z"/>
</svg>
